assets/svg/1F35E.svg

<svg xmlns="http://www.w3.org/2000/svg" viewBox="0 0 64 64" enable-background="new 0 0 64 64"><path fill="#fbb041" d="m.071 43.41c1.166 10.346 16.374 14.193 33.963 8.572 17.59-5.611 30.905-18.561 29.739-28.904-1.166-10.344-16.371-14.178-33.961-8.573-17.593 5.619-30.907 18.559-29.741 28.905"/><g fill="#e8a043"><path d="m40.477 38.845c-10.657 3.872-29.403 14.174-40.449 3.952.012.203.021.406.043.609 1.166 10.348 16.374 14.194 33.963 8.573 13.521-4.313 24.507-12.95 28.343-21.421-7.492 3.397-15.11 5.817-21.9 8.287"/><path d="m26.778 34.684c-.406-.21-14.01-7.263-16.1-8.353-.854-.439-.866-2.271-.166-2.998 6.387-6.711 14.375-2.569 17.412 9.03.331 1.267-.291 2.765-1.145 2.326"/><path d="m39.961 25.459c-.347-.177-12.02-6.229-13.809-7.155-.729-.38-.739-1.956-.145-2.58 5.478-5.751 12.332-2.206 14.933 7.738.29 1.084-.247 2.38-.979 1.997"/><path d="m52.68 21.246c-.229-.197-7.869-6.925-9.04-7.955-.478-.421-.363-1.511.102-1.813 4.236-2.809 8.721 1.135 9.771 8.601.111.812-.358 1.588-.834 1.167"/></g><g fill="#f0ca94"><path d="m26.649 33.554c-.404-.218-14.01-7.267-16.1-8.349-.854-.441-.864-2.272-.166-3.01 6.383-6.703 14.375-2.566 17.41 9.03.333 1.263-.293 2.768-1.143 2.328"/><path d="m39.704 23.18c-.347-.177-12.02-6.231-13.808-7.157-.733-.378-.743-1.948-.142-2.578 5.474-5.75 12.327-2.198 14.932 7.746.289 1.081-.248 2.369-.982 1.989"/><path d="m52.55 20.12c-.229-.203-7.864-6.925-9.04-7.957-.476-.421-.36-1.51.099-1.818 4.242-2.808 8.729 1.135 9.773 8.601.119.82-.356 1.596-.831 1.174"/></g></svg>

<?xml version="1.0" encoding="UTF-8" standalone="no"?>
<!-- Generator: Adobe Illustrator 16.0.0, SVG Export Plug-In . SVG Version: 6.00 Build 0)  -->

<svg
   xmlns:dc="http://purl.org/dc/elements/1.1/"
   xmlns:cc="http://creativecommons.org/ns#"
   xmlns:rdf="http://www.w3.org/1999/02/22-rdf-syntax-ns#"
   xmlns:svg="http://www.w3.org/2000/svg"
   xmlns="http://www.w3.org/2000/svg"
   xmlns:sodipodi="http://sodipodi.sourceforge.net/DTD/sodipodi-0.dtd"
   xmlns:inkscape="http://www.inkscape.org/namespaces/inkscape"
   version="1.1"
   id="Layer_1"
   x="0px"
   y="0px"
   width="64px"
   height="64px"
   viewBox="0 0 64 64"
   enable-background="new 0 0 64 64"
   xml:space="preserve"
   inkscape:version="0.48.5 r10040"
   sodipodi:docname="1F35E.svg"
   inkscape:export-filename="D:\TESTINGEMOJI\SVGTEST\1F35E.png"
   inkscape:export-xdpi="90"
   inkscape:export-ydpi="90"><metadata
   id="metadata4052"><rdf:RDF><cc:Work
       rdf:about=""><dc:format>image/svg+xml</dc:format><dc:type
         rdf:resource="http://purl.org/dc/dcmitype/StillImage" /><dc:title></dc:title></cc:Work></rdf:RDF></metadata><defs
   id="defs4050" /><sodipodi:namedview
   pagecolor="#ffffff"
   bordercolor="#666666"
   borderopacity="1"
   objecttolerance="10"
   gridtolerance="10"
   guidetolerance="10"
   inkscape:pageopacity="0"
   inkscape:pageshadow="2"
   inkscape:window-width="640"
   inkscape:window-height="480"
   id="namedview4048"
   showgrid="false"
   inkscape:zoom="3.6875"
   inkscape:cx="32"
   inkscape:cy="32"
   inkscape:window-x="642"
   inkscape:window-y="274"
   inkscape:window-maximized="0"
   inkscape:current-layer="Layer_1" />
<g
   id="g4030">
	<path
   fill="#FBB041"
   d="M0.071,43.408c1.166,10.346,16.374,14.193,33.963,8.572c17.59-5.611,30.905-18.561,29.739-28.904   c-1.166-10.344-16.371-14.178-33.961-8.573C12.219,20.122-1.095,33.062,0.071,43.408z"
   id="path4032" />
	<path
   fill="#E8A043"
   d="M40.477,38.845C29.82,42.717,11.074,53.019,0.028,42.797C0.04,43,0.049,43.203,0.071,43.406   c1.166,10.348,16.374,14.194,33.963,8.573c13.521-4.313,24.507-12.95,28.343-21.421C54.885,33.955,47.271,36.375,40.477,38.845z"
   id="path4034" />
	<path
   fill="#E8A043"
   d="M26.778,34.684c-0.406-0.21-14.013-7.263-16.101-8.353c-0.854-0.439-0.866-2.271-0.166-2.998   c6.387-6.711,14.375-2.569,17.412,9.025C28.254,33.625,27.632,35.123,26.778,34.684z"
   id="path4036" />
	<path
   fill="#E8A043"
   d="M39.961,25.459c-0.347-0.177-12.017-6.229-13.809-7.155c-0.729-0.38-0.739-1.956-0.145-2.58   c5.478-5.751,12.332-2.206,14.933,7.738C41.23,24.546,40.693,25.842,39.961,25.459z"
   id="path4038" />
	<path
   fill="#E8A043"
   d="M52.68,21.246c-0.229-0.197-7.869-6.925-9.039-7.955c-0.478-0.421-0.363-1.511,0.102-1.813   c4.236-2.809,8.721,1.135,9.771,8.601C53.625,20.891,53.156,21.667,52.68,21.246z"
   id="path4040" />
	<path
   fill="#F0CA94"
   d="M26.649,33.554c-0.404-0.218-14.01-7.267-16.101-8.349c-0.854-0.441-0.864-2.272-0.166-3.007   c6.383-6.703,14.375-2.566,17.41,9.028C28.125,32.489,27.499,33.994,26.649,33.554z"
   id="path4042" />
	<path
   fill="#F0CA94"
   d="M39.704,23.182c-0.347-0.177-12.016-6.231-13.808-7.157c-0.733-0.378-0.743-1.948-0.142-2.578   c5.474-5.75,12.327-2.198,14.932,7.746C40.975,22.274,40.438,23.562,39.704,23.182z"
   id="path4044" />
	<path
   fill="#F0CA94"
   d="M52.552,20.116c-0.229-0.203-7.864-6.925-9.041-7.957c-0.476-0.421-0.36-1.51,0.099-1.818   c4.242-2.808,8.729,1.135,9.773,8.601C53.502,19.762,53.027,20.538,52.552,20.116z"
   id="path4046" />
</g>
</svg>
